X: 1810
T: Rory Of The Hills
M:6/8
L:1/8
B:O'Neill's 1810
Z:"Transcribed by Bob Safranek, rjs@gsp.org"
K:D
{AB}A2 F {AB}A2  E |{AB}A2 F {AB}A2 D |{B=c}B2 G {AB}A2 E|{GA}G2 z F (E2 {FE}D)|
{AB}A2 F {AB}A2  D |{AB}A2 F {AB}A2 D |{B=c}B2 d     AdG |
    FdF  (E2 {FE}D)|{FG}F2 D {GA}G2 E |      A3     (AGF)|(E<=c)G     E2 C|
 (G<=c)G    ECE    |   (D>ED)   (D>ED)|    (D>ED)  (D>ED)||
{B=c}B2 G  (B<d)G  |{B=c}B2 G   (B<d)G| {AB}A2 d {AB}A2 F|{AB}A2 d {AB}A2 F |
{B=c}B2 B  (A<d)A  |  (G<=c)G    E2  C| {FG}F2 D {GA}G2 E|    A3      (AGF) |
(E<=c)G     ECE    |  (G<=c)G    ECE  |    (D>ED)  (D>ED)| (D>ED)   (D>ED) |]


